!!!!SEGMENT: T365_Str-w7p138m2-1h198-200m1.krn
!!!COM: Stravinsky, Igor (Fyodorovich)
!!!OTL: II: The Sacrifice: Sacrificial Dance
!!!AGN: Stage
!!!AGN-sub: Ballet
!!!CNT: Russian,French,American
!!!ODT: 1913 (rev. 1943)
!!!OPR: Vesna svyashchennaya (The Rite of Spring), Scenes of Pagan Russia for Orchestra
!!!filename: T365_Str-w7p138m2-1h198-200m1.krn
**kern	**dynam	**kern	**dynam	**kern	**dynam	**kern	**dynam	**kern	**dynam	**kern	**dynam	**kern	**dynam	**kern	**dynam	**kern	**dynam	**kern	**dynam	**kern	**dynam	**kern	**dynam	**kern	**dynam	**kern	**dynam	**kern	**dynam	**kern	**dynam	**kern	**dynam	**kern	**dynam	**kern	**dynam	**kern	**dynam	**kern	**dynam	**kern	**dynam	**kern	**dynam	**kern	**dynam	**kern	**dynam	**kern	**dynam	**kern	**dynam	**kern	**dynam	**kern	**dynam	**kern	**dynam
*grp:A	*	*grp:B	*	*grp:B	*	*grp:B	*	*grp:B	*	*grp:A	*	*grp:A	*	*grp:A	*	*grp:B	*	*grp:B	*	*grp:B	*	*grp:B	*	*grp:B	*	*grp:B	*	*grp:B	*	*grp:B	*	*grp:B	*	*grp:B	*	*grp:A	*	*grp:A	*	*grp:A	*	*grp:B	*	*grp:B	*	*grp:B	*	*grp:B	*	*grp:B	*	*grp:B	*	*grp:B	*	*grp:B	*	*grp:B	*
*part30	*	*part29	*	*part28	*	*part27	*	*part26	*	*part25	*	*part24	*	*part23	*	*part22	*	*part21	*	*part20	*	*part19	*	*part18	*	*part17	*	*part16	*	*part15	*	*part14	*	*part13	*	*part12	*	*part11	*	*part10	*	*part9	*	*part8	*	*part7	*	*part6	*	*part5	*	*part4	*	*part3	*	*part2	*	*part1	*
*staff30	*	*staff29	*	*staff28	*	*staff27	*	*staff26	*	*staff25	*	*staff24	*	*staff23	*	*staff22	*	*staff21	*	*staff20	*	*staff19	*	*staff18	*	*staff17	*	*staff16	*	*staff15	*	*staff14	*	*staff13	*	*staff12	*	*staff11	*	*staff10	*	*staff9	*	*staff8	*	*staff7	*	*staff6	*	*staff5	*	*staff4	*	*staff3	*	*staff2	*	*staff1	*
*ICstr	*	*ICstr	*	*ICstr	*	*ICstr	*	*ICstr	*	*ICidio	*	*	*	*ICidio	*	*ICbras	*	*ICbras	*	*ICbras	*	*ICbras	*	*ICbras	*	*ICbras	*	*ICbras	*	*ICbras	*	*ICbras	*	*ICbras	*	*ICstr	*	*ICww	*	*ICww	*	*ICww	*	*ICww	*	*ICww	*	*ICww	*	*ICww	*	*ICww	*	*ICww	*	*ICww	*	*ICww	*
*Ibass	*	*Icello	*	*Iviola	*	*Ivioln	*	*Ivioln	*	*Ibdrum	*	*	*	*Itimpa	*	*Ituba	*	*Itromt	*	*Itromp	*	*Itromp	*	*Itromp	*	*Itromp	*	*Icor	*	*Icor	*	*Icor	*	*Icor	*	*Icbass	*	*Ifagot	*	*Iclarb	*	*Iclars	*	*Iclars	*	*Iclars	*	*Icalgl	*	*Ioboe	*	*Ioboe	*	*Iflt	*	*Iflt	*	*Ipicco	*
*I"Contrabass	*	*I"Violoncello	*	*I"Viola	*	*I"Violin II	*	*I"Violin I	*	*I"Bass Drum	*	*I"Timpani 3.4. 	*	*I"Timpani 1.2.	*	*I"Tuba 1.2.	*	*I"Trombone 1.2.3.	*	*I"Bass Trumpet in Eb	*	*I"Trumpet in C 3.	*	*I"Trumpet in C 1.2.	*	*I"Trumpet in D	*	*I"Horn in F 7.8.	*	*I"Horn in F 5.6.	*	*I"Horn in F 3.4.	*	*I"Horn in F 1.2.	*	*I"Contrabassoon 1.2.	*	*I"Bassoon 1.2.3.	*	*I"Bass Clarinet in Bb	*	*I"Clarinet in Bb 3.	*	*I"Clarinet in Bb 1.2.	*	*I"Clarinet in Eb	*	*I"Cor Anglais	*	*I"Oboe 3.4.	*	*I"Oboe 1.2.	*	*I"Alto Flute	*	*I"Flute 1.2.	*	*I"Piccolo 1.2.	*
*I'Cb.	*	*I'Vc.	*	*I'Vla.	*	*I'Vln. II	*	*I'Vln. I	*	*I'Perc.	*	*I'Timp. 3.4.	*	*I'Timp.1.2.	*	*I'Tba.	*	*I'Tbn.	*	*I'Bass Tpt.	*	*I'C Tpt.	*	*I'C Tpt.	*	*I'D Tpt.	*	*I'Hn.	*	*I'Hn. 5.6.	*	*I'Hn. 3.4. 	*	*I'Hn. 1.2.	*	*I'Cbsn.	*	*I'Bsn.	*	*I'B. Cl.	*	*I'Cl.	*	*I'Cl.	*	*I'Eb Cl.	*	*I'C. A.	*	*I'Ob.	*	*I'Ob.	*	*I'A. Fl.	*	*I'Fl.	*	*I'Picc.	*
*clefF4	*	*clefF4	*	*clefC3	*	*clefG2	*	*clefG2	*	*clefF4	*	*clefF4	*	*clefF4	*	*clefF4	*	*clefF4	*	*clefG2	*	*clefG2	*	*clefG2	*	*clefG2	*	*clefG2	*	*clefG2	*	*clefG2	*	*clefG2	*	*clefF4	*	*clefF4	*	*clefF4	*	*clefG2	*	*clefG2	*	*clefG2	*	*clefG2	*	*clefG2	*	*clefG2	*	*clefG2	*	*clefG2	*	*clefG2	*
*ITrd0c0	*	*	*	*	*	*	*	*	*	*	*	*	*	*	*	*	*	*	*	*ITrd5c9	*	*	*	*	*	*ITrd-1c-2	*	*ITrd4c7	*	*ITrd4c7	*	*ITrd4c7	*	*ITrd4c7	*	*ITrd7c12	*	*	*	*ITrd1c2	*	*ITrd1c2	*	*ITrd1c2	*	*ITrd-2c-3	*	*ITrd4c7	*	*	*	*	*	*ITrd3c5	*	*	*	*ITrd-7c-12	*
*k[]	*	*k[]	*	*k[]	*	*k[]	*	*k[]	*	*k[]	*	*k[]	*	*k[]	*	*k[]	*	*k[]	*	*k[b-e-a-]	*	*k[]	*	*k[]	*	*k[f#c#]	*	*k[b-]	*	*k[b-]	*	*k[b-]	*	*k[b-]	*	*k[]	*	*k[]	*	*k[b-e-]	*	*k[b-e-]	*	*k[b-e-]	*	*k[b-e-a-]	*	*k[b-]	*	*k[]	*	*k[]	*	*k[f#]	*	*k[]	*	*k[]	*
*	*	*	*	*	*	*	*	*	*	*C:	*	*	*	*	*	*	*	*	*	*	*	*	*	*	*	*	*	*	*	*	*	*	*	*	*	*	*	*	*	*	*	*	*	*	*	*	*	*	*	*	*	*	*	*	*	*	*	*	*
*M3/16	*	*M3/16	*	*M3/16	*	*M3/16	*	*M3/16	*	*M3/16	*	*M3/16	*	*M3/16	*	*M3/16	*	*M3/16	*	*M3/16	*	*M3/16	*	*M3/16	*	*M3/16	*	*M3/16	*	*M3/16	*	*M3/16	*	*M3/16	*	*M3/16	*	*M3/16	*	*M3/16	*	*M3/16	*	*M3/16	*	*M3/16	*	*M3/16	*	*M3/16	*	*M3/16	*	*M3/16	*	*M3/16	*	*M3/16	*
=1	=1	=1	=1	=1	=1	=1	=1	=1	=1	=1	=1	=1	=1	=1	=1	=1	=1	=1	=1	=1	=1	=1	=1	=1	=1	=1	=1	=1	=1	=1	=1	=1	=1	=1	=1	=1	=1	=1	=1	=1	=1	=1	=1	=1	=1	=1	=1	=1	=1	=1	=1	=1	=1	=1	=1	=1	=1	=1	=1
*	*	*	*	*	*	*^	*	*^	*	*	*	*	*	*	*	*	*	*	*	*	*	*	*	*	*	*	*	*^	*	*^	*	*^	*	*	*	*	*	*^	*	*	*	*	*	*	*	*	*	*	*	*	*	*	*	*	*	*	*	*^	*
!	!	!	!LO:DY:ed=brack	!	!LO:DY:ed=brack	!	!	!LO:DY:ed=brack	!	!	!LO:DY:ed=brack	!	!	!	!	!	!	!	!LO:DY:ed=brack	!	!LO:DY:ed=brack	!	!LO:DY:ed=brack	!	!LO:DY:ed=brack	!	!LO:DY:ed=brack	!	!LO:DY:ed=brack	!	!	!	!	!	!	!	!	!	!	!	!LO:TX:a:t=a 2	!	!	!	!	!	!	!	!LO:DY:ed=brack	!	!LO:DY:ed=brack	!	!LO:DY:ed=brack	!	!LO:DY:ed=brack	!	!LO:DY:ed=brack	!	!LO:DY:ed=brack	!	!LO:DY:ed=brack	!	!LO:DY:ed=brack	!	!	!
16r	.	16fLL	ff	16eeLL	ff	16eeeLL	16dd-XLL 16bb-X	ff	16eeeLL	16dd-XLL 16bb-X	ff	16r	.	16r	.	16%3r	.	16AALL 16G	ff	16C#XLL 16E 16A	ff	16eXLL	ff	16fLL	ff	16b-XLL 16dd-X	ff	16eeLL	ff	8r	16%3r	.	8r	16%3r	.	8r	16%3r	.	8r	.	16r	.	16%3rG	16r	.	16r	.	16b-LL	mf	16dd-XLL 16ff	mf	16bb-LL	ff	16dd-XLL	ff	16ffLL 16ddd-X	ff	16bb-XLL 16ddd-X	ff	16eeLL	mf	16eeeLL	ff	8r	8ryy	.
!	!LO:DY:ed=brack	!	!	!	!	!	!	!	!	!	!	!	!LO:DY:ed=brack	!	!	!	!	!	!	!	!	!	!	!	!	!	!	!	!	!	!	!	!	!	!	!	!	!	!	!	!	!LO:TX:t=P:problem: cross-bar beaming	!LO:DY:ed=brack	!	!LO:TX:t=P:problem:cross-bar beaming	!LO:DY:ed=brack	!LO:TX:t=P:problem:cross-bar beaming	!LO:DY:ed=brack	!	!	!	!	!	!	!	!	!	!	!	!	!	!	!	!	!	!
16AAA^LL	f	16r	.	16r	.	16ryy@	16r	.	16r	16ryy	.	16Ra/LL	sf	8AAL	.	.	.	16r	.	16r	.	16r	.	16r	.	16r	.	16r	.	.	.	.	.	.	.	.	.	.	.	.	16AAALL	f	.	16AALL	ff	16AALL	ff	16r	.	16r	.	16r	.	16r	.	16r	.	16r	.	16r	.	16r	.	.	.	.
.	.	.	.	.	.	.	.	.	.	.	.	.	.	.	.	.	.	.	.	.	.	.	.	.	.	.	.	.	.	.	.	.	.	.	.	.	.	.	.	.	.	.	.	.	.	.	.	.	.	.	.	.	.	.	.	.	.	.	.	.	.	.	.	(>16qqdddd-X/LL	.	.
.	.	.	.	.	.	.	.	.	.	.	.	.	.	.	.	.	.	.	.	.	.	.	.	.	.	.	.	.	.	.	.	.	.	.	.	.	.	.	.	.	.	.	.	.	.	.	.	.	.	.	.	.	.	.	.	.	.	.	.	.	.	.	.	16qqeeee-X/	.	.
.	.	.	.	.	.	.	.	.	.	.	.	.	.	.	.	.	.	.	.	.	.	.	.	.	.	.	.	.	.	.	.	.	.	.	.	.	.	.	.	.	.	.	.	.	.	.	.	.	.	.	.	.	.	.	.	.	.	.	.	.	.	.	.	16qqeeeen/JJ	.	.
!	!	!	!	!	!	!	!	!	!	!	!	!	!	!	!	!	!	!	!	!	!	!	!	!	!	!	!	!	!	!	!	!	!	!	!	!	!	!	!	!	!	!	!	!	!	!	!	!	!	!	!	!	!	!	!	!	!	!	!	!	!	!	!	!	!	!LO:DY:ed=brack
16r	.	16dd-XJJ	.	16ffJJ	.	16cccJJ	16bb-XJJ 16fff	.	16cccJJ	16bb-XJJ 16fff	.	16r	.	.	.	.	.	16GGJJ 16D-X	.	16BB-XJJ 16E-X 16G	.	16cJJ	.	16b-XJJ	.	16dd-XJJ 16ff	.	16ccXJJ	.	16B-	.	sff	16d-X	.	sff	16f	.	sff	16B- 16f	sff	16r	.	.	16r	.	16r	.	16dd-XJJ	.	16ffJJ 16bb-	.	16ddd-XJJ	.	16ffJJ	.	16bb-XJJ 16fff	.	16ddd-XJJ 16fff	.	16ccJJ	.	16cccJJ	.	16ffff)	16cccc	f
=2	=2	=2	=2	=2	=2	=2	=2	=2	=2	=2	=2	=2	=2	=2	=2	=2	=2	=2	=2	=2	=2	=2	=2	=2	=2	=2	=2	=2	=2	=2	=2	=2	=2	=2	=2	=2	=2	=2	=2	=2	=2	=2	=2	=2	=2	=2	=2	=2	=2	=2	=2	=2	=2	=2	=2	=2	=2	=2	=2	=2	=2	=2	=2	=2	=2	=2
*M2/16	*	*M2/16	*	*M2/16	*	*M2/16	*	*	*M2/16	*	*	*M2/16	*	*M2/16	*	*M2/16	*	*M2/16	*	*M2/16	*	*M2/16	*	*M2/16	*	*M2/16	*	*M2/16	*	*M2/16	*	*	*M2/16	*	*	*M2/16	*	*	*M2/16	*	*M2/16	*	*M2/16	*	*	*M2/16	*	*M2/16	*	*M2/16	*	*M2/16	*	*M2/16	*	*M2/16	*	*M2/16	*	*M2/16	*	*M2/16	*	*M2/16	*	*
!	!	!	!	!	!	!LO:TX:a:t=unis.	!	!	!LO:TX:a:t=unis.	!	!	!	!	!	!	!	!	!	!	!	!	!	!	!	!	!	!	!	!	!	!	!	!	!	!	!	!	!	!	!	!	!	!	!	!	!	!	!	!	!	!	!	!	!	!	!	!	!	!	!	!	!	!	!	!	!
16CC^JJ	.	16r	.	16r	.	16r	8ryy	.	16r	8ryy	.	16Ra/JJ	.	8ryy	.	16CJk	.	8r	.	8r	.	8r	.	8r	.	8r	.	8r	.	8rgg	16rb	.	8rgg	16rb	.	8r	16r	.	8r	.	16CCJJ	.	16r	16CJJ	.	16CJJ	.	16r	.	16r	.	8r	.	8r	.	8r	.	8r	.	16r	.	8r	.	8r	8ryy	.
*	*	*	*	*	*	*	*	*	*	*	*	*	*	*	*	*	*	*	*	*	*	*	*	*	*	*	*	*	*	*	*clefF4	*	*	*clefF4	*	*	*	*	*	*	*	*	*	*	*	*	*	*	*	*	*	*	*	*	*	*	*	*	*	*	*	*	*	*	*	*
16r	.	16FF#X 16C#X 16A#X	.	16f 16b-X	.	16e 16cc#X 16ee	.	.	16e 16cc#X 16ee	.	.	16r	.	.	.	16r	.	.	.	.	.	.	.	.	.	.	.	.	.	.	16BBB-	.	.	16DD-X	.	.	16G-X	.	.	.	16r	.	16FF#X 16E	16r	.	16r	.	16f	.	16b- 16dd-X	.	.	.	.	.	.	.	.	.	16ee	.	.	.	.	.	.
!!LO:REH:t=198
=3	=3	=3	=3	=3	=3	=3	=3	=3	=3	=3	=3	=3	=3	=3	=3	=3	=3	=3	=3	=3	=3	=3	=3	=3	=3	=3	=3	=3	=3	=3	=3	=3	=3	=3	=3	=3	=3	=3	=3	=3	=3	=3	=3	=3	=3	=3	=3	=3	=3	=3	=3	=3	=3	=3	=3	=3	=3	=3	=3	=3	=3	=3	=3	=3	=3	=3
!	!	!	!	!	!	!LO:TX:a:t=a 3	!	!	!LO:TX:a:t=a 3	!	!	!	!	!	!LO:DY:rj:t=più %s	!	!	!	!	!	!	!	!	!	!	!	!	!	!	!	!	!	!	!	!	!	!	!	!	!	!LO:TX:t=P:problem:cross-bar beaming	!	!	!	!	!LO:TX:t=P:problem:cross-bar beaming	!	!	!	!	!	!	!	!	!	!	!	!	!	!	!	!	!	!	!	!
16AAA 16AA	sff	16r	.	16r	.	16r	16ryy	.	16r	16ryy	.	16Ra/	.	8AAL	sf	8r	.	16r	.	16r	.	16r	.	16r	.	16r	.	16r	.	8rG	16AAA	ff	8rG	16AAA	ff	8r	8ryy	.	8r	.	16AAALL	ff	8r	16AA	.	16AALL	ff	16r	.	16r	.	16r	.	16r	.	16r	.	16r	.	16r	.	16r	.	8r	8ryy	.
!	!	!	!	!	!	!	!	!	!	!	!	!	!	!	!	!	!	!	!	!	!	!	!	!	!	!	!	!LO:TX:t=P:problem:cross-bar beaming (same below)	!	!	!	!	!	!	!	!	!	!	!	!	!	!	!	!	!	!	!	!	!	!	!	!	!	!	!	!	!	!	!	!	!	!	!	!	!	!
16r	.	16d-XLL	.	16ccLL	.	16cccLL	16b-XLL 16ff	.	16cccLL	16b-XLL 16ff	.	16r	.	.	.	.	.	16AALL 16G	.	16C#XLL 16E 16A	.	16cLL	.	16d-XLL	.	16fLL 16b-X	.	16ccXLL	.	.	16r	.	.	16r	.	.	.	.	.	.	16r	.	.	16r	.	16r	.	16fLL	.	16b-LL 16dd-X	.	16ffLL	.	16b-LL	.	16dd-XLL 16bb-X	.	16ffLL 16bb-X	.	16ccLL	.	16cccLL	.	.	.	.
=4	=4	=4	=4	=4	=4	=4	=4	=4	=4	=4	=4	=4	=4	=4	=4	=4	=4	=4	=4	=4	=4	=4	=4	=4	=4	=4	=4	=4	=4	=4	=4	=4	=4	=4	=4	=4	=4	=4	=4	=4	=4	=4	=4	=4	=4	=4	=4	=4	=4	=4	=4	=4	=4	=4	=4	=4	=4	=4	=4	=4	=4	=4	=4	=4	=4	=4
*M3/16	*	*M3/16	*	*M3/16	*	*M3/16	*	*	*M3/16	*	*	*M3/16	*	*M3/16	*	*M3/16	*	*M3/16	*	*M3/16	*	*M3/16	*	*M3/16	*	*M3/16	*	*M3/16	*	*M3/16	*	*	*M3/16	*	*	*M3/16	*	*	*M3/16	*	*M3/16	*	*M3/16	*	*	*M3/16	*	*M3/16	*	*M3/16	*	*M3/16	*	*M3/16	*	*M3/16	*	*M3/16	*	*M3/16	*	*M3/16	*	*M3/16	*	*
16r	.	16fJJ	.	16eeJJ	.	16eeeJJ	16dd-XJJ 16bb-X	.	16eeeJJ	16dd-XJJ 16bb-X	.	16%3r	.	16%3r	.	16r	.	16GGJJ 16D-X	.	16BB-XJJ 16D-X 16G	.	16eXJJ	.	16fJJ	.	16b-XJJ 16dd-X	.	16eeJJ	.	16%3rG	8r	.	16%3rG	8r	.	16%3r	8r	.	16%3r	.	16r	.	8r	8r	.	16r	.	16b-JJ	.	16dd-XJJ 16ff	.	16bb-JJ	.	16dd-XJJ	.	16ffJJ 16ddd-X	.	16bb-XJJ 16ddd-X	.	16eeJJ	.	16eeeJJ	.	16%3r	16%3ryy	.
!	!LO:DY:rj:t=meno %s	!	!	!	!	!LO:TX:a:t=unis.	!	!	!LO:TX:a:t=unis.	!	!	!	!	!	!	!	!LO:DY:rj:t=[ più %s ]	!	!	!	!	!	!	!	!	!	!	!	!	!	!	!	!	!	!	!	!	!	!	!	!	!	!	!	!	!	!	!	!	!	!	!	!	!	!	!	!	!	!	!	!	!	!	!	!	!
16CC	f	16r	.	16r	.	16r	8ryy	.	16r	8ryy	.	.	.	.	.	16CJk	sf	8r	.	8r	.	8r	.	16r	.	16r	.	8r	.	.	.	.	.	.	.	.	.	.	.	.	16CCJJ	mf	.	.	.	16CJJ	mf	8r	.	16r	.	8r	.	8r	.	16r	.	8r	.	8r	.	8r	.	.	.	.
16r	.	16FF#X 16C#X 16A#X	.	16f 16b-X	.	16e 16cc#X 16ee	.	.	16e 16cc#X 16ee	.	.	.	.	.	.	16r	.	.	.	.	.	.	.	16r	.	16r	.	.	.	.	16BBB-	mf	.	16DD-X	mf	.	16G-X	mf	.	.	16r	.	16FF#X 16E	16ryy	.	16r	.	.	.	16r	.	.	.	.	.	16r	.	.	.	.	.	.	.	.	.	.
=5	=5	=5	=5	=5	=5	=5	=5	=5	=5	=5	=5	=5	=5	=5	=5	=5	=5	=5	=5	=5	=5	=5	=5	=5	=5	=5	=5	=5	=5	=5	=5	=5	=5	=5	=5	=5	=5	=5	=5	=5	=5	=5	=5	=5	=5	=5	=5	=5	=5	=5	=5	=5	=5	=5	=5	=5	=5	=5	=5	=5	=5	=5	=5	=5	=5	=5
!	!LO:HP:t= 	!	!	!	!	!	!	!	!	!	!	!	!LO:HP:t= 	!	!	!	!LO:HP:t= 	!	!	!	!	!	!	!	!	!	!	!	!	!	!	!	!	!	!	!	!	!	!	!	!	!LO:HP:t= 	!	!	!LO:HP:t= 	!	!LO:HP:t= 	!	!	!	!	!	!	!	!	!	!	!	!	!	!	!	!	!	!	!
!	!LO:DY:t=%s e sempre cresc.	!	!	!	!	!	!LO:TX:a:t=a 3	!	!	!LO:TX:a:t=a 3	!	!	!LO:DY:t=%s e sempre cresc.	!	!LO:HP:t= 	!	!LO:DY:t=%s e sempre cresc.	!	!LO:HP:t= 	!	!LO:HP:t= 	!	!LO:HP:t= 	!	!LO:HP:t= 	!	!	!LO:HP:t= 	!	!	!LO:HP:t= 	!	!	!LO:HP:t= 	!	!LO:HP:t= 	!	!LO:HP:t= 	!	!LO:HP:t= 	!	!LO:DY:t=%s e sempre cresc.	!	!	!LO:DY:t=%s e sempre cresc.	!	!LO:DY:t=%s e sempre cresc.	!	!LO:HP:t= 	!	!LO:HP:t= 	!	!LO:HP:t= 	!	!LO:HP:t= 	!	!LO:HP:t= 	!	!	!LO:HP:t= 	!	!LO:HP:t= 	!	!LO:HP:t= 	!LO:TX:a:B:t=Poco a poco crescendo	!LO:HP:t=
16AAA^LL	f <	16r	.	16r	.	16r	16ryy	.	16r	16ryy	.	16Ra/LL	f <	16AALL	<	8r	f <	16r	<	16r	<	16r	<	16r	<	16r	<	16r	<	16%3r	16%3ryy	<	16%3r	16%3ryy	<	16%3r	16%3ryy	<	16%3r	<	16AAALL	f <	16%3rG	16AALL	f <	16AALL	f <	16r	<	16r	<	16r	<	16r	<	16r	<	16r	<	16r	<	16r	<	16%3r	16%3ryy	<
!	!	!	!LO:HP:t= 	!	!LO:HP:t= 	!	!	!LO:HP:t= 	!	!	!LO:HP:t= 	!	!	!	!	!	!	!	!	!	!	!	!	!	!	!	!	!	!	!	!	!	!	!	!	!	!	!	!	!	!	!	!	!	!	!	!	!	!	!	!	!	!	!	!	!	!	!	!	!	!	!	!	!	!	!
!	!	!	!LO:DY:t=%s e sempre cresc.	!	!LO:DY:t=%s e sempre cresc.	!	!	!LO:DY:t=%s e sempre cresc.	!	!	!LO:DY:t=%s e sempre cresc.	!	!	!	!	!	!	!	!	!	!	!	!	!	!	!	!	!	!	!	!	!	!	!	!	!	!	!	!	!	!	!	!	!	!	!	!	!	!	!	!	!	!	!	!	!	!	!	!	!	!	!	!	!	!	!
16r	.	16B-XLL	f <	16gLL	f <	16ggLL	16fLL 16dd-X	f <	16ggLL	16fLL 16dd-X	f <	16r	.	8r	.	.	.	16CLL 16B-X	.	16ELL 16G 16c	.	16GLL	.	16B-XLL	.	16d-XLL 16f	.	16gLL	.	.	.	.	.	.	.	.	.	.	.	.	16r	.	.	16r	.	16r	.	16fLL	.	16b-LL 16dd-X	.	16ffLL	.	16fLL	.	16b-XLL 16ff	.	16dd-XLL 16ff	.	16gLL	.	16ggLL	.	.	.	.
16CC^JJ	.	16d-XJJ	.	16ccJJ	.	16cccJJ	16b-XJJ 16ff	.	16cccJJ	16b-XJJ 16ff	.	16Ra/JJ	.	.	.	16CJJ	.	16BB-XJJ 16E	.	16C#XJJ 16F#X 16A#X	.	16cJJ	.	16d-XJJ	.	16fJJ 16b-X	.	16ccXJJ	.	.	.	.	.	.	.	.	.	.	.	.	16CCJJ	.	.	16CJJ	.	16CJJ	.	16fJJ	.	16b-JJ 16dd-	.	16ffJJ	.	16b-JJ	.	16dd-XJJ 16bb-X	.	16ffJJ 16bb-X	.	16ccJJ	.	16cccJJ	.	.	.	.
*	*	*	*	*	*	*	*	*	*	*	*	*	*	*	*	*	*	*	*	*	*	*	*	*	*	*	*	*	*	*clefG2	*	*	*clefG2	*	*	*	*	*	*	*	*	*	*	*	*	*	*	*	*	*	*	*	*	*	*	*	*	*	*	*	*	*	*	*	*	*
=6	=6	=6	=6	=6	=6	=6	=6	=6	=6	=6	=6	=6	=6	=6	=6	=6	=6	=6	=6	=6	=6	=6	=6	=6	=6	=6	=6	=6	=6	=6	=6	=6	=6	=6	=6	=6	=6	=6	=6	=6	=6	=6	=6	=6	=6	=6	=6	=6	=6	=6	=6	=6	=6	=6	=6	=6	=6	=6	=6	=6	=6	=6	=6	=6	=6	=6
!	!	!	!	!	!	!	!	!	!	!	!	!	!	!	!	!	!	!	!	!	!	!	!	!	!	!	!	!	!	!LO:TX:a:i:t=sempre sim.	!	!	!LO:TX:a:i:t=sempre sim.	!	!	!LO:TX:a:i:t=sempre sim.	!	!	!LO:TX:a:i:t=sempre sim.	!	!	!	!	!	!	!	!	!	!	!	!	!	!	!	!	!	!	!	!	!	!	!	!	!	!	!
16r^	.	16fLL	.	16eeLL	.	16eeeLL	16dd-XLL 16bb-X	.	16eeeLL	16dd-XLL 16bb-X	.	16r	.	16r	.	16%3r	.	16AALL 16G	.	16C#XLL 16E 16A#X	.	16eXLL	.	16fLL	.	16b-XLL 16dd-X	.	16eeLL	.	8r	16%3r	.	8r	16%3r	.	8r	16%3r	.	8r	.	16r	.	16%3rG	16r	.	16r	.	16b-LL	.	16dd-XLL 16ff	.	16bb-LL	.	16dd-XLL	.	16ffLL 16ddd-X	.	16bb-XLL 16ddd-X	.	16eeLL	.	16eeeLL	.	8r	8ryy	.
!	!	!	!	!	!	!	!	!	!	!	!	!	!	!	!	!	!	!	!	!	!	!	!	!	!	!	!	!	!	!	!	!	!	!	!	!	!	!	!	!	!LO:TX:t=P:problem:cross-bar beaming	!	!	!LO:TX:t=P:problem:cross-bar beaming	!	!LO:TX:t=P:problem:	!	!	!	!	!	!	!	!	!	!	!	!	!	!	!	!	!	!	!	!
16AAA^LL	.	16r	.	16r	.	16r	16ryy	.	16r	16ryy	.	16Ra/LL	.	16AALL	.	.	.	16r	.	16r	.	16r	.	16r	.	16r	.	16r	.	.	.	.	.	.	.	.	.	.	.	.	16AAALL	.	.	16AALL	.	16AALL	.	16r	.	16r	.	16r	.	16r	.	16r	.	16r	.	16r	.	16r	.	.	.	.
.	.	.	.	.	.	.	.	.	.	.	.	.	.	.	.	.	.	.	.	.	.	.	.	.	.	.	.	.	.	.	.	.	.	.	.	.	.	.	.	.	.	.	.	.	.	.	.	.	.	.	.	.	.	.	.	.	.	.	.	.	.	.	.	(>16qqdddd-X/LL	.	.
.	.	.	.	.	.	.	.	.	.	.	.	.	.	.	.	.	.	.	.	.	.	.	.	.	.	.	.	.	.	.	.	.	.	.	.	.	.	.	.	.	.	.	.	.	.	.	.	.	.	.	.	.	.	.	.	.	.	.	.	.	.	.	.	16qqeeee-X/	.	.
.	.	.	.	.	.	.	.	.	.	.	.	.	.	.	.	.	.	.	.	.	.	.	.	.	.	.	.	.	.	.	.	.	.	.	.	.	.	.	.	.	.	.	.	.	.	.	.	.	.	.	.	.	.	.	.	.	.	.	.	.	.	.	.	16qqeeeen/JJ	.	.
16r^	.	16dd-XJJ	.	16ffJJ	.	16cccJJ	16bb-XJJ 16fff	.	16cccJJ	16bb-XJJ 16fff	.	16r	.	16r	.	.	.	16GGJJ 16D-X	.	16BB-XJJ 16E-X 16G	.	16cJJ	.	16b-XJJ	.	16dd-JJ 16ff	.	16ccXJJ	.	16B-	.	.	16d-X	.	.	16f	.	.	16B- 16f	.	16r	.	.	16r	.	16r	.	16dd-XJJ	.	16ffJJ 16bb-	.	16ddd-XJJ	.	16ffJJ	.	16bb-XJJ 16fff	.	16ddd-XJJ 16fff	.	16ccJJ	.	16cccJJ	.	16ffff)	16cccc	.
*	*	*	*	*	*	*	*	*	*	*	*	*	*	*	*	*	*	*	*	*	*	*	*	*	*	*	*	*	*	*clefF4	*clefF4	*	*clefF4	*	*	*	*	*	*	*	*	*	*	*	*	*	*	*	*	*	*	*	*	*	*	*	*	*	*	*	*	*	*	*	*	*
=7	=7	=7	=7	=7	=7	=7	=7	=7	=7	=7	=7	=7	=7	=7	=7	=7	=7	=7	=7	=7	=7	=7	=7	=7	=7	=7	=7	=7	=7	=7	=7	=7	=7	=7	=7	=7	=7	=7	=7	=7	=7	=7	=7	=7	=7	=7	=7	=7	=7	=7	=7	=7	=7	=7	=7	=7	=7	=7	=7	=7	=7	=7	=7	=7	=7	=7
*M2/16	*	*M2/16	*	*M2/16	*	*M2/16	*	*	*M2/16	*	*	*M2/16	*	*M2/16	*	*M2/16	*	*M2/16	*	*M2/16	*	*M2/16	*	*M2/16	*	*M2/16	*	*M2/16	*	*M2/16	*	*	*M2/16	*	*	*M2/16	*	*	*M2/16	*	*M2/16	*	*M2/16	*	*	*M2/16	*	*M2/16	*	*M2/16	*	*M2/16	*	*M2/16	*	*M2/16	*	*M2/16	*	*M2/16	*	*M2/16	*	*M2/16	*	*
!	!	!	!	!	!	!LO:TX:a:t=unis.	!	!	!LO:TX:a:t=unis.	!	!	!	!	!	!	!	!	!	!	!	!	!	!	!	!	!	!	!	!	!	!	!	!	!	!	!	!	!	!	!	!	!	!	!	!	!	!	!	!	!	!	!	!	!	!	!	!	!	!	!	!	!	!	!	!	!
16CC^JJ	.	16r	.	16r	.	16r	8ryy	.	16r	8ryy	.	16Ra/JJ	.	8r	.	16CJJ	.	8r	.	8r	.	8r	.	8r	.	8r	.	8r	.	8rG	16r	.	8rG	16r	.	8ree	16r	.	8r	.	16CCJJ	.	16r	16CJJ	.	16CJJ	.	16r	.	16r	.	8r	.	8r	.	8r	.	8r	.	16r	.	8r	.	8r	8ryy	.
16r^	.	16FF#X 16C#X 16A#X	.	16f 16b-X	.	16e 16cc#X 16ee	.	.	16e 16cc#X 16ee	.	.	16r	.	.	.	16r	.	.	.	.	.	.	.	.	.	.	.	.	.	.	16BBB-	.	.	16DD-X	.	.	16G-X	.	.	.	16r	.	16FF#X 16E	16r	.	16r	.	16f	.	16b- 16dd-X	.	.	.	.	.	.	.	.	.	16ee	.	.	.	.	.	.
*	*	*	*	*	*	*	*	*	*	*	*	*	*	*	*	*	*	*	*	*	*	*	*	*	*	*	*	*	*	*v	*v	*	*v	*v	*	*v	*v	*	*	*	*	*	*	*	*	*	*	*	*	*	*	*	*	*	*	*	*	*	*	*	*	*	*	*	*	*
*	*	*clefC4	*	*	*	*	*	*	*	*	*	*	*	*	*	*	*	*	*	*	*	*	*	*	*	*	*	*	*	*	*	*	*	*	*	*	*	*	*	*	*	*	*	*	*	*	*	*	*	*	*	*	*	*	*	*	*	*	*	*	*	*	*
!!LO:REH:t=199
=8	=8	=8	=8	=8	=8	=8	=8	=8	=8	=8	=8	=8	=8	=8	=8	=8	=8	=8	=8	=8	=8	=8	=8	=8	=8	=8	=8	=8	=8	=8	=8	=8	=8	=8	=8	=8	=8	=8	=8	=8	=8	=8	=8	=8	=8	=8	=8	=8	=8	=8	=8	=8	=8	=8	=8	=8	=8	=8	=8	=8	=8	=8	=8
*M3/16	*	*M3/16	*	*M3/16	*	*M3/16	*	*	*M3/16	*M3/16	*	*M3/16	*	*M3/16	*	*M3/16	*	*M3/16	*	*M3/16	*	*M3/16	*	*M3/16	*	*M3/16	*	*M3/16	*	*M3/16	*	*M3/16	*	*M3/16	*	*M3/16	*	*M3/16	*	*M3/16	*	*	*M3/16	*	*M3/16	*	*M3/16	*	*M3/16	*	*M3/16	*	*M3/16	*	*M3/16	*	*M3/16	*	*M3/16	*	*M3/16	*	*
!	!	!	!	!	!	!LO:TX:a:t=a 3	!	!	!LO:TX:a:t=a 3	!	!	!	!	!	!	!	!	!	!	!	!	!	!	!	!	!	!	!	!	!	!	!	!	!	!	!	!	!	!	!	!	!	!	!	!	!	!	!	!	!	!	!	!	!	!	!	!	!	!	!	!	!	!
16AAA^LL	.	16r	.	16r	.	16r	16ryy	.	16r	16ryy	.	16Ra/LL	.	16AALL	.	8r	.	16r	.	16r	.	16r	.	16r	.	16r	.	16r	.	16%3r	.	16%3r	.	16%3r	.	16%3r	.	16AAALL	.	16%3r	16AALL	.	16AALL	.	16r	.	16r	.	16r	.	16r	.	16r	.	16r	.	16r	.	16r	.	16%3r	16%3ryy	.
16r^	.	16B-XLL	.	16gLL	.	16ggLL	16fLL 16dd-X	.	16ggLL	16fLL 16dd-X	.	16r	.	8r	.	.	.	16CLL 16B-X	.	16ELL 16G 16c	.	16GLL	.	16B-XLL	.	16d-XLL 16f	.	16gLL	.	.	.	.	.	.	.	.	.	16r	.	.	16r	.	16r	.	16fLL	.	16b-LL 16dd-X	.	16ffLL	.	16fLL	.	16b-XLL 16ff	.	16dd-XLL 16ff	.	16gLL	.	16ggLL	.	.	.	.
16CC^JJ	.	16d-XJJ	.	16ccJJ	.	16cccJJ	16b-XJJ 16ff	.	16cccJJ	16b-XJJ 16ff	.	16Ra/JJ	.	.	.	16CJJ	.	16BB-XJJ 16E	.	16C#XJJ 16F#X 16A#X	.	16cJJ	.	16d-XJJ	.	16fJJ 16b-X	.	16ccXJJ	.	.	.	.	.	.	.	.	.	16CCJJ	.	.	16CJJ	.	16CJJ	.	16fJJ	.	16b-JJ 16dd-	.	16ffJJ	.	16b-JJ	.	16dd-XJJ 16bb-X	.	16ffJJ 16bb-X	.	16ccJJ	.	16cccJJ	.	.	.	.
*	*	*	*	*	*	*	*	*	*	*	*	*	*	*	*	*	*	*	*	*	*	*	*	*	*	*	*	*	*	*clefG2	*	*clefG2	*	*	*	*	*	*	*	*	*	*	*	*	*	*	*	*	*	*	*	*	*	*	*	*	*	*	*	*	*	*	*
=9	=9	=9	=9	=9	=9	=9	=9	=9	=9	=9	=9	=9	=9	=9	=9	=9	=9	=9	=9	=9	=9	=9	=9	=9	=9	=9	=9	=9	=9	=9	=9	=9	=9	=9	=9	=9	=9	=9	=9	=9	=9	=9	=9	=9	=9	=9	=9	=9	=9	=9	=9	=9	=9	=9	=9	=9	=9	=9	=9	=9	=9	=9	=9
*	*	*	*	*	*	*	*	*	*	*	*	*	*	*	*	*	*	*	*	*	*	*	*	*	*	*	*	*	*	*^	*	*^	*	*^	*	*	*	*	*	*	*	*	*	*	*	*	*	*	*	*	*	*	*	*	*	*	*	*	*	*	*	*	*
16r^	.	16fLL	.	16eeLL	.	16eeeLL	16dd-XLL 16bb-X	.	16eeeLL	16dd-XLL 16bb-X	.	16r	.	16r	.	16%3r	.	16AALL 16G	.	16C#XLL 16E 16A#X	.	16eXLL	.	16fLL	.	16b-XLL 16dd-X	.	16eeLL	.	8r	16%3r	.	8r	16%3r	.	8r	16%3r	.	8r	.	16r	.	16%3r	16r	.	16r	.	16b-LL	.	16dd-XLL 16ff	.	16bb-LL	.	16dd-XLL	.	16ffLL 16ddd-X	.	16bb-XLL 16ddd-X	.	16eeLL	.	16eeeLL	.	8r	8ryy	.
!	!	!	!	!	!	!	!	!	!	!	!	!	!	!	!	!	!	!	!	!	!	!	!	!	!	!	!	!	!	!	!	!	!	!	!	!	!	!	!	!	!LO:TX:t=P:problem:cross-bar beaming	!	!	!LO:TX:t=P:problem:cross-bar beaming (same throughout part)	!	!	!	!	!	!	!	!	!	!	!	!	!	!	!	!	!	!	!	!	!	!
16AAA^LL	.	16r	.	16r	.	16r	16ryy	.	16r	16ryy	.	16Ra/LL	.	16AALL	.	.	.	16r	.	16r	.	16r	.	16r	.	16r	.	16r	.	.	.	.	.	.	.	.	.	.	.	.	16AAALL	.	.	16AALL	.	16AALL	.	16r	.	16r	.	16r	.	16r	.	16r	.	16r	.	16r	.	16r	.	.	.	.
.	.	.	.	.	.	.	.	.	.	.	.	.	.	.	.	.	.	.	.	.	.	.	.	.	.	.	.	.	.	.	.	.	.	.	.	.	.	.	.	.	.	.	.	.	.	.	.	.	.	.	.	.	.	.	.	.	.	.	.	.	.	.	.	(>16qqdddd-X/LL	.	.
.	.	.	.	.	.	.	.	.	.	.	.	.	.	.	.	.	.	.	.	.	.	.	.	.	.	.	.	.	.	.	.	.	.	.	.	.	.	.	.	.	.	.	.	.	.	.	.	.	.	.	.	.	.	.	.	.	.	.	.	.	.	.	.	16qqeeee-X/	.	.
.	.	.	.	.	.	.	.	.	.	.	.	.	.	.	.	.	.	.	.	.	.	.	.	.	.	.	.	.	.	.	.	.	.	.	.	.	.	.	.	.	.	.	.	.	.	.	.	.	.	.	.	.	.	.	.	.	.	.	.	.	.	.	.	16qqeeeen/JJ	.	.
16r^	.	16dd-XJJ	.	16ffJJ	.	16cccJJ	16bb-XJJ 16fff	.	16cccJJ	16bb-XJJ 16fff	.	16r	.	16r	.	.	.	16GGJJ 16D-X	.	16BB-XJJ 16E-X 16G	.	16cJJ	.	16b-XJJ	.	16dd-JJ 16ff	.	16ccXJJ	.	16B-	.	.	16d-X	.	.	16f	.	.	16B- 16f	.	16r	.	.	16r	.	16r	.	16dd-XJJ	.	16ffJJ 16bb-	.	16ddd-XJJ	.	16ffJJ	.	16bb-XJJ 16fff	.	16ddd-XJJ 16fff	.	16ccJJ	.	16cccJJ	.	16ffff)	16cccc	.
=10	=10	=10	=10	=10	=10	=10	=10	=10	=10	=10	=10	=10	=10	=10	=10	=10	=10	=10	=10	=10	=10	=10	=10	=10	=10	=10	=10	=10	=10	=10	=10	=10	=10	=10	=10	=10	=10	=10	=10	=10	=10	=10	=10	=10	=10	=10	=10	=10	=10	=10	=10	=10	=10	=10	=10	=10	=10	=10	=10	=10	=10	=10	=10	=10	=10	=10
16CC^JJ	.	16r	.	16r	.	16r	16ryy	.	16r	16ryy	.	16Ra/JJ	.	8r	.	16CJJ	.	16r	.	16r	.	16r	.	16r	.	16r	.	16r	.	16%3r	16%3ryy	.	16%3r	16%3ryy	.	16%3r	16%3ryy	.	16%3r	.	16CCJJ	.	16%3r	16CJJ	.	16CJJ	.	16r	.	16r	.	16r	.	16r	.	16r	.	16r	.	16r	.	16r	.	16%3r	16%3ryy	.
16r^	.	16B-XLL	.	16gLL	.	16ggLL	16fLL 16dd-X	.	16ggLL	16fLL 16dd-X	.	16r	.	.	.	8r	.	16CLL 16B-X	.	16ELL 16G 16c	.	16GLL	.	16B-XLL	.	16d-XLL 16f	.	16gLL	.	.	.	.	.	.	.	.	.	.	.	.	16r	.	.	16r	.	16r	.	16fLL	.	16b-LL 16dd-X	.	16ffLL	.	16fLL	.	16b-XLL 16ff	.	16dd-XLL 16ff	.	16gLL	.	16ggLL	.	.	.	.
16AAA^LL	.	16d-XJJ	.	16ccJJ	.	16cccJJ	16b-XJJ 16ff	.	16cccJJ	16b-XJJ 16ff	.	16Ra/LL	.	16AALL	.	.	.	16BB-XJJ 16E	.	16C#XJJ 16F#X 16A#X	.	16cJJ	.	16d-XJJ	.	16fJJ 16b-X	.	16ccXJJ	.	.	.	.	.	.	.	.	.	.	.	.	16AAALL	.	.	16AALL	.	16AALL	.	16fJJ	.	16b-JJ 16dd-	.	16ffJJ	.	16b-JJ	.	16dd-XJJ 16bb-X	.	16ffJJ 16bb-X	.	16ccJJ	.	16cccJJ	.	.	.	.
=11	=11	=11	=11	=11	=11	=11	=11	=11	=11	=11	=11	=11	=11	=11	=11	=11	=11	=11	=11	=11	=11	=11	=11	=11	=11	=11	=11	=11	=11	=11	=11	=11	=11	=11	=11	=11	=11	=11	=11	=11	=11	=11	=11	=11	=11	=11	=11	=11	=11	=11	=11	=11	=11	=11	=11	=11	=11	=11	=11	=11	=11	=11	=11	=11	=11	=11
16r^	.	16fLL	.	16eeLL	.	16eeeLL	16dd-XLL 16bb-X	.	16eeeLL	16dd-XLL 16bb-X	.	16r	.	16%3r	.	16r	.	16AALL 16G	.	16C#XLL 16E 16A#X	.	16eXLL	.	16fLL	.	16b-XLL 16dd-X	.	16eeLL	.	8r	16%3r	.	8r	16%3r	.	8r	16%3r	.	8r	.	16r	.	16%3rG	16r	.	16r	.	16b-	.	16dd-XLL 16ff	.	16bb-LL	.	16dd-XLL	.	16ffLL 16ddd-X	.	16bb-XLL 16ddd-X	.	16eeLL	.	16eeeLL	.	8r	8ryy	.
16CC^JJ	.	16r	.	16r	.	16r	16ryy	.	16r	16ryy	.	16Ra/JJ	.	.	.	16CJJ	.	16r	.	16r	.	16r	.	16r	.	16r	.	16r	.	.	.	.	.	.	.	.	.	.	.	.	16CCJJ	.	.	16CJJ	.	16CJJ	.	16r	.	16r	.	16r	.	16r	.	16r	.	16r	.	16r	.	16r	.	.	.	.
.	.	.	.	.	.	.	.	.	.	.	.	.	.	.	.	.	.	.	.	.	.	.	.	.	.	.	.	.	.	.	.	.	.	.	.	.	.	.	.	.	.	.	.	.	.	.	.	.	.	.	.	.	.	.	.	.	.	.	.	.	.	.	.	(>16qqdddd-X/LL	.	.
.	.	.	.	.	.	.	.	.	.	.	.	.	.	.	.	.	.	.	.	.	.	.	.	.	.	.	.	.	.	.	.	.	.	.	.	.	.	.	.	.	.	.	.	.	.	.	.	.	.	.	.	.	.	.	.	.	.	.	.	.	.	.	.	16qqeeee-X/	.	.
.	.	.	.	.	.	.	.	.	.	.	.	.	.	.	.	.	.	.	.	.	.	.	.	.	.	.	.	.	.	.	.	.	.	.	.	.	.	.	.	.	.	.	.	.	.	.	.	.	.	.	.	.	.	.	.	.	.	.	.	.	.	.	.	16qqeeeen/JJ	.	.
16r^	.	16dd-XJJ	.	16ffJJ	.	16cccJJ	16bb-XJJ 16fff	.	16cccJJ	16bb-XJJ 16fff	.	16r	.	.	.	16r	.	16GGJJ 16D-X	.	16BB-XJJ 16E-X 16G	.	16cJJ	.	16b-XJJ	.	16dd-JJ 16ff	.	16ccXJJ	.	16B-	.	.	16d-X	.	.	16f	.	.	16B- 16f	.	16r	.	.	16r	.	16rJJ	.	16dd-X	.	16ffJJ 16bb-	.	16ddd-XJJ	.	16ffJJ	.	16bb-XJJ 16fff	.	16ddd-XJJ 16fff	.	16ccJJ	.	16cccJJ	.	16ffff)	16cccc	.
*	*	*	*	*	*	*	*	*	*	*	*	*	*	*	*	*	*	*	*	*	*	*	*	*	*	*	*	*	*	*	*	*	*	*	*	*	*	*	*	*	*	*	*	*	*	*	*	*	*	*	*	*	*	*	*	*	*	*	*	*	*	*	*	*v	*v	*
*	*	*clefF4	*	*	*	*	*	*	*	*	*	*	*	*	*	*	*	*	*	*	*	*	*	*	*	*	*	*	*	*	*	*	*	*	*	*	*	*	*	*	*	*	*	*	*	*	*	*	*	*	*	*	*	*	*	*	*	*	*	*	*	*	*	*	*
=12	=12	=12	=12	=12	=12	=12	=12	=12	=12	=12	=12	=12	=12	=12	=12	=12	=12	=12	=12	=12	=12	=12	=12	=12	=12	=12	=12	=12	=12	=12	=12	=12	=12	=12	=12	=12	=12	=12	=12	=12	=12	=12	=12	=12	=12	=12	=12	=12	=12	=12	=12	=12	=12	=12	=12	=12	=12	=12	=12	=12	=12	=12	=12	=12	=12
*M2/16	*	*M2/16	*	*M2/16	*	*M2/16	*	*	*M2/16	*	*	*M2/16	*	*M2/16	*	*M2/16	*	*M2/16	*	*M2/16	*	*M2/16	*	*M2/16	*	*M2/16	*	*M2/16	*	*M2/16	*	*	*M2/16	*	*	*M2/16	*	*	*M2/16	*	*M2/16	*	*M2/16	*	*	*M2/16	*	*M2/16	*	*M2/16	*	*M2/16	*	*M2/16	*	*M2/16	*	*M2/16	*	*M2/16	*	*M2/16	*	*M2/16	*
!	!	!	!	!	!	!LO:TX:a:t=unis.	!	!	!LO:TX:a:t=unis.	!	!	!	!	!	!	!	!	!	!	!	!	!	!	!	!	!	!	!	!	!	!	!	!	!	!	!	!	!	!	!	!	!	!	!	!	!	!	!	!	!	!	!	!	!	!	!	!	!	!	!	!	!	!	!	!
16AAA^LL	.	16r	.	16r	.	16r	8ryy	.	16r	8ryy	.	16Ra/LL	.	16AALL	.	8r	.	8r	.	8r	.	8r	.	8r	.	8r	.	8r	.	8rgg	16r	.	8rgg	16r	.	8r	16r	.	8r	.	16AAALL	.	16r	16AALL	.	16AALL	.	16r	.	16r	.	8r	.	8r	.	8r	.	8r	.	16r	.	8r	.	8r	.
*	*	*	*	*	*	*	*	*	*	*	*	*	*	*	*	*	*	*	*	*	*	*	*	*	*	*	*	*	*	*	*clefF4	*	*	*clefF4	*	*	*	*	*	*	*	*	*	*	*	*	*	*	*	*	*	*	*	*	*	*	*	*	*	*	*	*	*	*	*
16r^	.	16FF#X 16C#X 16A#X	.	16f 16b-X	.	16e 16cc#X 16ee	.	.	16e 16cc#X 16ee	.	.	16r	.	16r	.	.	.	.	.	.	.	.	.	.	.	.	.	.	.	.	16BBB-	.	.	16DD-X	.	.	16G-X	.	.	.	16r	.	16FF#X 16E	16ryy	.	16r	.	16f	.	16b- 16dd-X	.	.	.	.	.	.	.	.	.	16ee	.	.	.	.	.
*	*	*	*	*	*	*	*	*	*	*	*	*	*	*	*	*	*	*	*	*	*	*	*	*	*	*	*	*	*	*v	*v	*	*v	*v	*	*v	*v	*	*	*	*	*	*	*	*	*	*	*	*	*	*	*	*	*	*	*	*	*	*	*	*	*	*	*	*
*	*	*clefC4	*	*	*	*	*	*	*	*	*	*	*	*	*	*	*	*	*	*	*	*	*	*	*	*	*	*	*	*	*	*	*	*	*	*	*	*	*	*	*	*	*	*	*	*	*	*	*	*	*	*	*	*	*	*	*	*	*	*	*	*
!!LO:REH:t=200
=13	=13	=13	=13	=13	=13	=13	=13	=13	=13	=13	=13	=13	=13	=13	=13	=13	=13	=13	=13	=13	=13	=13	=13	=13	=13	=13	=13	=13	=13	=13	=13	=13	=13	=13	=13	=13	=13	=13	=13	=13	=13	=13	=13	=13	=13	=13	=13	=13	=13	=13	=13	=13	=13	=13	=13	=13	=13	=13	=13	=13	=13	=13
*M3/16	*	*M3/16	*	*M3/16	*	*M3/16	*	*	*M3/16	*	*	*M3/16	*	*M3/16	*	*M3/16	*	*M3/16	*	*M3/16	*	*M3/16	*	*M3/16	*	*M3/16	*	*M3/16	*	*M3/16	*	*M3/16	*	*M3/16	*	*M3/16	*	*M3/16	*	*M3/16	*	*	*M3/16	*	*M3/16	*	*M3/16	*	*M3/16	*	*M3/16	*	*M3/16	*	*M3/16	*	*M3/16	*	*M3/16	*	*M3/16	*
!	!	!	!	!	!	!LO:TX:a:t=a 3	!	!	!LO:TX:a:t=a 3	!	!	!LO:TX:a:B:t=200	!	!	!	!	!	!	!	!	!	!	!	!	!	!	!	!	!	!	!	!	!	!	!	!	!	!	!	!	!	!	!	!	!	!	!	!	!	!	!	!	!	!	!	!	!	!	!	!	!	!
16CC^JJ	.	16r	.	16r	.	16r	16ryy	.	16r	16ryy	.	16Ra/JJ	.	8r	.	16CJJ	.	16r	.	16r	.	16r	.	16r	.	16r	.	16r	.	16%3r	.	16%3r	.	16%3r	.	16%3r	.	16CCJJ	.	16%3rG	16CJJ	.	16CJJ	.	16r	.	16r	.	16r	.	16r	.	16r	.	16r	.	16r	.	16r	.	16%3r	.
16r^	.	16E-XLL	.	16gLL	.	16ggLL	16fLL 16dd-X	.	16ggLL	16fLL 16dd-X	.	16r	.	.	.	8r	.	16CLL 16B-X	.	16ELL 16G 16c	.	16GLL	.	16B-XLL	.	16d-XLL 16f	.	16gLL	.	.	.	.	.	.	.	.	.	16r	.	.	16r	.	16r	.	16fLL	.	16b-LL 16dd-X	.	16ffLL	.	16fLL	.	16b-XLL 16ff	.	16dd-XLL 16ff	.	16gLL	.	16ggLL	.	.	.
16AAA^	.	16G-XJJ	.	16ccJJ	.	16cccJJ	16b-XJJ 16ff	.	16cccJJ	16b-XJJ 16ff	.	16Ra/	.	16AA	.	.	.	16BB-XJJ 16E	.	16C#XJJ 16F#X 16A#X	.	16cJJ	.	16d-XJJ	.	16fJJ 16b-X	.	16ccXJJ	.	.	.	.	.	.	.	.	.	16AAA	.	.	16AA	.	16AA	.	16fJJ	.	16b-JJ 16dd-	.	16ffJJ	.	16b-JJ	.	16dd-XJJ 16bb-X	.	16ffJJ 16bb-X	.	16ccJJ	.	16cccJJ	.	.	.
*	*	*	*	*	*	*v	*v	*	*v	*v	*	*	*	*	*	*	*	*	*	*	*	*	*	*	*	*	*	*	*	*	*	*	*	*	*	*	*	*	*	*v	*v	*	*	*	*	*	*	*	*	*	*	*	*	*	*	*	*	*	*	*	*	*
=	=	=	=	=	=	=	=	=	=	=	=	=	=	=	=	=	=	=	=	=	=	=	=	=	=	=	=	=	=	=	=	=	=	=	=	=	=	=	=	=	=	=	=	=	=	=	=	=	=	=	=	=	=	=	=	=	=	=	=
*-	*-	*-	*-	*-	*-	*-	*-	*-	*-	*-	*-	*-	*-	*-	*-	*-	*-	*-	*-	*-	*-	*-	*-	*-	*-	*-	*-	*-	*-	*-	*-	*-	*-	*-	*-	*-	*-	*-	*-	*-	*-	*-	*-	*-	*-	*-	*-	*-	*-	*-	*-	*-	*-	*-	*-	*-	*-	*-	*-
!!!system-decoration: [(s1,s2,s3[(s4,s5)]s6,s7[(s8,s9)]s10,s11,s12[(s13,s14,s15,s16)]s17[(s18,s19)][s20,s21,s22,s23,s24]s25[(s26,s27)]s28[(s29,s30)])]
!!!RDF**kern: > = above
!!!Suter_Work_ID: Str-7
!!!Suter_Example_Number: 365
!!!Suter_Example_ID: Str-7/138/2-1[198]-[200]1
!!!Premiere_Location: Paris,France
!!!Other_Tsigs: 2/16,3/16,2/16,3/16,2/16,3/16
!!!Full_Unit_Duration: 4:29
!!!First_Publication_Year: 1921
!!!First_Public_Performance_Year: 1913
!!!Example_Total_Measures: 13
!!!Example_Timestamp_Duration: 8
!!!Example_Start_Tsig_Type: changing
!!!Example_Start_Tsig_Mean_Beat_Rate: 252
!!!Example_Start_Tsig_Beat_Rate: 252
!!!Example_Start_Tsig_Beat: sixteenth
!!!Example_Start_Tsig: 3/16
!!!Example_Start_Timestamp: 4:09
!!!Example_Start_Tempo_Expression: none
!!!Example_Start_Notated_Beat_Rate: [126]
!!!Example_Start_Notated_Beat: [eighth]
!!!Example_Start_Measure: 255
!!!Example_Metadata_Validated: Y
!!!Example_End_Timestamp: 4:17
!!!Example_End_Measure: 267
!!!Example_Dataset: T
!!!Editorial_Comments: Example Start Notated Beat and Example Start Notated Beat Rate [eighth=126] based on most recent notated beat rate (SWFU, m. 203).
!!!Death_Place: New York,United States
!!!Death_Date: 6-Apr-1971
!!!Changing_Tsig: yes
!!!Birth_Place: Lomonosov (Oranienbaum),Russia
!!!Birth_Date: 17-Jun-1882
!!!Audio_Example_Quarter_Note_Tempo:
!!!Audio_Example_Duration:
!!!RDF**kern: < = below
